svgs/solid/file-chart-pie.svg

<svg xmlns="http://www.w3.org/2000/svg" viewBox="0 0 384 512"><!--! Font Awesome Pro 6.6.0 by @fontawesome - https://fontawesome.com License - https://fontawesome.com/license (Commercial License) Copyright 2024 Fonticons, Inc. --><path d="M64 0C28.7 0 0 28.7 0 64L0 448c0 35.3 28.7 64 64 64l256 0c35.3 0 64-28.7 64-64l0-288-128 0c-17.7 0-32-14.3-32-32L224 0 64 0zM256 0l0 128 128 0L256 0zm40 320l-88 0c-8.8 0-16-7.2-16-16l0-88c0-8.8 7.2-16.1 16-14.9c53.5 7.1 95.9 49.5 103 103c1.2 8.8-6.1 16-14.9 16zM160 230l0 106c0 8.8 7.2 16 16 16l106 0c10.1 0 17.7 9.3 14.1 18.8C278.9 415.9 235.2 448 184 448c-66.3 0-120-53.7-120-120c0-51.2 32.1-94.9 77.2-112.2c9.5-3.6 18.8 4 18.8 14.1z"/></svg>

<svg xmlns="http://www.w3.org/2000/svg" viewBox="0 0 384 512"><!--! Font Awesome Pro 6.4.2 by @fontawesome - https://fontawesome.com License - https://fontawesome.com/license (Commercial License) Copyright 2023 Fonticons, Inc. --><path d="M64 0C28.7 0 0 28.7 0 64V448c0 35.3 28.7 64 64 64H320c35.3 0 64-28.7 64-64V160H256c-17.7 0-32-14.3-32-32V0H64zM256 0V128H384L256 0zm40 320H208c-8.8 0-16-7.2-16-16V216c0-8.8 7.2-16.1 16-14.9c53.5 7.1 95.9 49.5 103 103c1.2 8.8-6.1 16-14.9 16zM160 230V336c0 8.8 7.2 16 16 16H282c10.1 0 17.7 9.3 14.1 18.8C278.9 415.9 235.2 448 184 448c-66.3 0-120-53.7-120-120c0-51.2 32.1-94.9 77.2-112.2c9.5-3.6 18.8 4 18.8 14.1z"/></svg>
